T: Holy Land, The
M: 4/4
L: 1/8
K: Dmaj
~B3 d (3AAA Bc | d ~F3 DFA=c | BG (3GGG ABdf | af (3efg fdd :||(3fff df dfaf | gfed (3Bcd eg | f2 df dfaf | gfeg fdde |f2 df dfaf | gfed cdec | dfaf g2 ag | (3fgf eg fdd |||: D | ~E3 G D2 EF | GB, (3BBB G,B,DG | ~| A | (3BBB GB GBdB | cBAG FGAc | ~
